dist/img/left_q.svg

<svg width="30" height="19" viewBox="0 0 30 19" fill="none" xmlns="http://www.w3.org/2000/svg">
<path d="M29.3464 1.47157C28.871 1.82808 28.3957 2.24401 27.9203 2.71936C24.5929 6.28446 22.9292 9.37422 22.9292 11.9886C22.9292 12.2263 22.9292 12.464 22.9292 12.7017C23.048 12.9393 23.1074 13.1176 23.1074 13.2364C23.1074 14.6625 22.2756 15.8508 20.6119 16.8015C19.067 17.6334 17.5221 18.0493 15.9772 18.0493C14.9077 18.0493 14.3729 17.4551 14.3729 16.2668C14.3729 14.603 16.3932 11.6915 20.4336 7.53225C24.4741 3.25412 27.3262 1.11506 28.9899 1.11506H29.1681L29.3464 1.47157ZM15.2642 1.29332C14.9077 1.64983 14.4918 2.06575 14.0164 2.5411C10.689 6.10621 9.02528 9.31481 9.02528 12.1669C9.02528 13.2364 8.96586 13.89 8.84702 14.1277C8.134 16.6233 5.8761 17.8711 2.07332 17.8711C0.884952 17.8711 0.290767 17.2769 0.290767 16.0885C0.290767 14.5436 2.31099 11.6321 6.35145 7.35399C10.3919 3.07587 13.1846 0.936805 14.7294 0.936805C14.9671 0.936805 15.1454 1.05564 15.2642 1.29332Z" fill="#C8C7C4"/>
</svg>

<svg width="30" height="19" viewBox="0 0 30 19" fill="none" xmlns="http://www.w3.org/2000/svg"><path d="M29.346 1.472c-.475.356-.95.772-1.426 1.247-3.327 3.565-4.99 6.655-4.99 9.27v.713c.118.237.177.416.177.534 0 1.426-.831 2.615-2.495 3.566-1.545.831-3.09 1.247-4.635 1.247-1.07 0-1.604-.594-1.604-1.782 0-1.664 2.02-4.575 6.06-8.735 4.041-4.278 6.893-6.417 8.557-6.417h.178l.178.357zm-14.082-.179l-1.248 1.248c-3.327 3.565-4.99 6.774-4.99 9.626 0 1.07-.06 1.723-.179 1.96-.713 2.496-2.97 3.744-6.774 3.744-1.188 0-1.782-.594-1.782-1.782 0-1.545 2.02-4.457 6.06-8.735C10.391 3.076 13.185.937 14.73.937c.238 0 .416.119.535.356z" fill="#C8C7C4"/></svg>
